exports/number-with-adhd_v1_850x600.svg

<svg xmlns="http://www.w3.org/2000/svg" version="1.1" style="background-color:#fff;-webkit-font-smoothing:antialiased" width="850" height="600" font-family="'Helvetica Neue',Helvetica,Arial,sans-serif" font-size="18" text-rendering="optimizeLegibility"><g class="ChartTab"><g class="HeaderView"><g opacity=".8" transform="matrix(.27 0 0 .27 778 15)"><a xmlns:xlink="http://www.w3.org/1999/xlink" xlink:href="https://ourworldindata.org" target="_blank"><g><path fill="#1B2543" d="M0 0h211.2v130.1H0z"/><path fill="#E63912" d="M0 112.2h211.2v17.9H0z"/><g><path fill="none" d="M1.2 12.3h210.2v99.2H1.2z"/><path fill="#FFF" d="M37.8 32.2c0 12.7-7.7 19.4-17.1 19.4-9.7 0-16.6-7.5-16.6-18.7 0-11.7 7.3-19.3 17.1-19.3 10.1.1 16.6 7.7 16.6 18.6zm-28.6.6c0 7.9 4.3 14.9 11.8 14.9 7.5 0 11.8-6.9 11.8-15.3 0-7.3-3.8-14.9-11.8-14.9-7.9 0-11.8 7.3-11.8 15.3zM62.7 43.8c0 2.7.1 5.1.2 7.2h-4.3l-.3-4.3h-.1c-1.3 2.1-4 4.9-8.8 4.9-4.2 0-9.1-2.3-9.1-11.6V24.6h4.8v14.6c0 5 1.5 8.4 5.9 8.4 3.2 0 5.5-2.2 6.3-4.4.3-.7.4-1.6.4-2.5V24.6h4.8v19.2zM67.3 32.8c0-3.1-.1-5.8-.2-8.2h4.2l.2 5.2h.2c1.2-3.5 4.1-5.8 7.3-5.8.5 0 .9.1 1.4.2v4.5c-.5-.1-1-.2-1.6-.2-3.4 0-5.8 2.6-6.5 6.2-.1.7-.2 1.4-.2 2.2V51h-4.8V32.8zM95.4 51L86 14.2h5l4.4 18.6c1.1 4.6 2.1 9.2 2.7 12.7h.1c.6-3.7 1.8-8 3-12.8l4.9-18.5h5l4.5 18.7c1 4.4 2 8.7 2.6 12.6h.1c.8-4 1.8-8.1 3-12.7l4.9-18.5h4.9L120.6 51h-5L111 31.9c-1.1-4.7-1.9-8.3-2.4-12h-.1c-.7 3.7-1.5 7.3-2.8 12L100.4 51h-5zM154.9 37.6c0 9.8-6.8 14-13.2 14-7.2 0-12.7-5.2-12.7-13.6 0-8.8 5.8-14 13.1-14 7.7 0 12.8 5.5 12.8 13.6zm-21 .3c0 5.8 3.3 10.1 8 10.1 4.6 0 8-4.3 8-10.3 0-4.5-2.2-10.1-7.9-10.1s-8.1 5.2-8.1 10.3zM158.2 32.8c0-3.1-.1-5.8-.2-8.2h4.2l.2 5.2h.2c1.2-3.5 4.1-5.8 7.3-5.8.5 0 .9.1 1.4.2v4.5c-.5-.1-1-.2-1.6-.2-3.4 0-5.8 2.6-6.5 6.2-.1.7-.2 1.4-.2 2.2V51h-4.8V32.8zM173.5 12.3h4.8V51h-4.8V12.3zM206.5 12.3v31.9c0 2.3.1 5 .2 6.8h-4.3l-.2-4.6h-.2c-1.5 2.9-4.7 5.2-9 5.2-6.4 0-11.3-5.4-11.3-13.4-.1-8.8 5.4-14.2 11.9-14.2 4 0 6.8 1.9 8 4h.1V12.3h4.8zm-4.8 23.1c0-.6-.1-1.4-.2-2a7 7 0 00-6.9-5.6c-5 0-7.9 4.4-7.9 10.2 0 5.3 2.6 9.8 7.8 9.8 3.2 0 6.2-2.1 7.1-5.7.2-.7.2-1.3.2-2.1v-4.6zM42.8 64c.1 1.6-1.1 2.9-3.1 2.9-1.7 0-2.9-1.3-2.9-2.9 0-1.7 1.3-3 3-3 1.9 0 3 1.3 3 3zm-5.4 33.8V71.4h4.8v26.4h-4.8zM47.5 78.6c0-2.7-.1-5-.2-7.1h4.3l.3 4.4h.1c1.3-2.5 4.4-5 8.8-5 3.7 0 9.4 2.2 9.4 11.2v15.8h-4.8V82.6c0-4.3-1.6-7.8-6.1-7.8-3.2 0-5.6 2.2-6.5 4.9-.2.6-.3 1.4-.3 2.2v15.9h-4.8V78.6zM84 61.6c2.9-.4 6.3-.8 10.1-.8 6.8 0 11.7 1.6 14.9 4.6 3.3 3 5.2 7.3 5.2 13.2 0 6-1.9 10.9-5.3 14.3-3.4 3.4-9.1 5.3-16.3 5.3-3.4 0-6.2-.2-8.6-.4V61.6zm4.8 32.5c1.2.2 3 .3 4.8.3 10.2 0 15.7-5.7 15.7-15.6.1-8.7-4.9-14.2-14.9-14.2-2.5 0-4.3.2-5.6.5v29zM132.1 97.8l-.4-3.3h-.2a9.79 9.79 0 01-8.1 3.9c-5.4 0-8.1-3.8-8.1-7.6 0-6.4 5.7-9.9 15.9-9.8v-.5c0-2.2-.6-6.1-6-6.1-2.5 0-5 .8-6.9 2l-1.1-3.2c2.2-1.4 5.4-2.3 8.7-2.3 8.1 0 10.1 5.5 10.1 10.8v9.9c0 2.3.1 4.5.4 6.3h-4.3zm-.7-13.4c-5.3-.1-11.2.8-11.2 5.9 0 3.1 2.1 4.6 4.5 4.6 3.4 0 5.6-2.2 6.4-4.4.2-.5.3-1 .3-1.5v-4.6zM146.6 63.9v7.6h6.9v3.7h-6.9v14.2c0 3.3.9 5.1 3.6 5.1 1.3 0 2.2-.2 2.8-.3l.2 3.6c-.9.4-2.4.7-4.3.7-2.2 0-4-.7-5.2-2-1.4-1.4-1.9-3.8-1.9-6.9V75.1h-4.1v-3.7h4.1v-6.3l4.8-1.2zM171.4 97.8l-.4-3.3h-.2a9.79 9.79 0 01-8.1 3.9c-5.4 0-8.1-3.8-8.1-7.6 0-6.4 5.7-9.9 15.9-9.8v-.5c0-2.2-.6-6.1-6-6.1-2.5 0-5 .8-6.9 2l-1.1-3.2c2.2-1.4 5.4-2.3 8.7-2.3 8.1 0 10.1 5.5 10.1 10.8v9.9c0 2.3.1 4.5.4 6.3h-4.3zm-.7-13.4c-5.3-.1-11.2.8-11.2 5.9 0 3.1 2.1 4.6 4.5 4.6 3.4 0 5.6-2.2 6.4-4.4.2-.5.3-1 .3-1.5v-4.6z"/></g></g></a></g><a href="https://ourworldindata.org/grapher/number-with-adhd" target="_blank"><text font-size="21.6" x="15" y="32.3" fill="#555"><tspan x="15" y="32.28">Number of people with attention deficit/hyperactivity disorder (ADHD), World</tspan></text></a><text font-size="14.4" x="15" y="50.1" fill="#666"><tspan x="15" y="50.12">Number of people with attention deficit/hyperactivity disorder (ADHD), differentiated by sex.</tspan></text></g><g class="StackedArea"><defs><clipPath id="a"><path d="M88.53 0h820v967h-820z"/></clipPath></defs><g class="AxisBoxView"><g class="HorizontalAxis" fill="#666" text-anchor="middle" font-size="16.2"><text x="88.5" y="556.5">1990</text><text x="219" y="556.5">1995</text><text x="349.4" y="556.5">2000</text><text x="479.9" y="556.5">2005</text><text x="610.4" y="556.5">2010</text><text x="766.9" y="556.5">2016</text></g><g class="VerticalAxis" fill="#666" dominant-baseline="middle" text-anchor="end" font-size="16.2"><text x="83.53" y="535.3">0</text><text x="83.53" y="461.5">10 million</text><text x="83.53" y="387.7">20 million</text><text x="83.53" y="313.8">30 million</text><text x="83.53" y="240">40 million</text><text x="83.53" y="166.2">50 million</text><text x="83.53" y="92.4">60 million</text></g><g class="AxisGridLines"><path stroke="#ccc" d="M88.53 535.3H766.9"/><path stroke="#ddd" stroke-dasharray="3,2" d="M88.53 461.5H766.9M88.53 387.7H766.9M88.53 313.8H766.9M88.53 240H766.9M88.53 166.2H766.9M88.53 92.4H766.9"/></g><g class="AxisGridLines" stroke="#ddd" stroke-dasharray="3,2"><path d="M88.5 535.3V73M219 535.3V73M349.4 535.3V73M479.9 535.3V73M610.4 535.3V73M740.8 535.3V73"/></g></g><g clip-path="url(#a)"><g class="HeightedLegend clickable"><g class="legendMark"><path fill="#ed6c2d" d="M771.9 140.85h10v2.5h-10z"/><text font-size="14.4" x="786.9" y="146.4" fill="#333"><tspan x="786.9" y="146.42">Female</tspan></text></g><g class="legendMark"><path fill="#3360a9" d="M771.9 371.95h10v2.5h-10z"/><text font-size="14.4" x="786.9" y="377.5" fill="#333"><tspan x="786.9" y="377.52">Male</tspan></text></g></g><g class="Areas"><path d="M88.5 277.4l26.1-2.3 26.1-2.9 26.1-3.3 26.1-3.5 26.1-3.3 26.1-5.1 26.1-4.6 26.1-4.2 26-3.9 26.1-3.8 26.1-2.2 26.1-2.1 26.1-1.9 26.1-1.8 26.1-1.6 26.1-1.4 26.1-1.4 26.1-1.7 26.1-1.6 26.1-1.7 26-1.8 26.1-1.9 26.1-1.9 26.1-2 26.1-2.2 26.1-2.1v324.1H88.53" fill="#3360a9" fill-opacity=".7" class="World_1-area"/><path d="M88.5 168.3l26.1-4.1 26.1-5.2 26.1-5.5 26.1-5.9L219 142l26.1-6.3 26.1-5.7 26.1-5.1 26-4.7 26.1-4.5 26.1-3.3 26.1-2.9 26.1-2.9 26.1-2.5 26.1-2.4 26.1-2 26.1-2.1 26.1-2.4 26.1-2.5 26.1-2.4 26-2.6 26.1-2.7 26.1-2.8 26.1-2.9 26.1-3.1 26.1-3.2v138.2l-26.1 2.1-26.1 2.2-26.1 2-26.1 1.9-26.1 1.9-26 1.8-26.1 1.7-26.1 1.6-26.1 1.7-26.1 1.4-26.1 1.4-26.1 1.6-26.1 1.8-26.1 1.9-26.1 2.1-26.1 2.2-26.1 3.8-26 3.9-26.1 4.2-26.1 4.6-26.1 5.1-26.1 3.3-26.1 3.5-26.1 3.3-26.1 2.9-26.1 2.3" fill="#ed6c2d" fill-opacity=".7" class="World_0-area"/><path stroke-linecap="round" d="M88.5 277.4l26.1-2.3 26.1-2.9 26.1-3.3 26.1-3.5 26.1-3.3 26.1-5.1 26.1-4.6 26.1-4.2 26-3.9 26.1-3.8 26.1-2.2 26.1-2.1 26.1-1.9 26.1-1.8 26.1-1.6 26.1-1.4 26.1-1.4 26.1-1.7 26.1-1.6 26.1-1.7 26-1.8 26.1-1.9 26.1-1.9 26.1-2 26.1-2.2 26.1-2.1" stroke="#2B508D" stroke-opacity=".7" stroke-width=".5" fill="none" class="World_1-border"/><path stroke-linecap="round" d="M88.5 168.3l26.1-4.1 26.1-5.2 26.1-5.5 26.1-5.9L219 142l26.1-6.3 26.1-5.7 26.1-5.1 26-4.7 26.1-4.5 26.1-3.3 26.1-2.9 26.1-2.9 26.1-2.5 26.1-2.4 26.1-2 26.1-2.1 26.1-2.4 26.1-2.5 26.1-2.4 26-2.6 26.1-2.7 26.1-2.8 26.1-2.9 26.1-3.1 26.1-3.2" stroke="#C65A26" stroke-opacity=".7" stroke-width=".5" fill="none" class="World_0-border"/></g></g></g><g class="SourcesFooter" fill="#777"><g class="clickable" fill="#777"><text font-size="12.6" x="15" y="581.6"><tspan x="15" y="581.58">Source: IHME, Global Burden of Disease</tspan></text></g><text font-size="12.6" x="649" y="581.6"><tspan x="649.02" y="581.58"><a target="_blank" href="https://ourworldindata.org" fill="#777">OurWorldInData.org</a> • <a href="http://creativecommons.org/licenses/by-sa/4.0/deed.en_US" target="_blank" fill="#777">CC BY-SA</a></tspan></text></g></g></svg>

<svg xmlns="http://www.w3.org/2000/svg" version="1.1" style="font-family: 'Helvetica Neue', Helvetica, Arial, sans-serif; font-size: 18px; background-color: white; text-rendering: optimizeLegibility; -webkit-font-smoothing: antialiased;" width="850" height="600"><g class="ChartTab"><g class="HeaderView"><g opacity="0.8" transform="translate(778, 15) scale(0.27)"><a xmlns:xlink="http://www.w3.org/1999/xlink" xlink:href="https://ourworldindata.org" target="_blank"><g><rect x="0" y="0" fill="#1B2543" width="211.2" height="130.1"/><rect x="0" y="112.2" fill="#E63912" width="211.2" height="17.9"/><g><rect x="1.2" y="12.3" fill="none" width="210.2" height="99.2"/><path fill="#FFFFFF" d="M37.8,32.2c0,12.7-7.7,19.4-17.1,19.4c-9.7,0-16.6-7.5-16.6-18.7c0-11.7,7.3-19.3,17.1-19.3 C31.3,13.7,37.8,21.3,37.8,32.2z M9.2,32.8c0,7.9,4.3,14.9,11.8,14.9c7.5,0,11.8-6.9,11.8-15.3c0-7.3-3.8-14.9-11.8-14.9 C13.1,17.5,9.2,24.8,9.2,32.8z"/><path fill="#FFFFFF" d="M62.7,43.8c0,2.7,0.1,5.1,0.2,7.2h-4.3l-0.3-4.3h-0.1c-1.3,2.1-4,4.9-8.8,4.9c-4.2,0-9.1-2.3-9.1-11.6 V24.6h4.8v14.6c0,5,1.5,8.4,5.9,8.4c3.2,0,5.5-2.2,6.3-4.4c0.3-0.7,0.4-1.6,0.4-2.5V24.6h4.8V43.8z"/><path fill="#FFFFFF" d="M67.3,32.8c0-3.1-0.1-5.8-0.2-8.2h4.2l0.2,5.2h0.2c1.2-3.5,4.1-5.8,7.3-5.8c0.5,0,0.9,0.1,1.4,0.2v4.5 c-0.5-0.1-1-0.2-1.6-0.2c-3.4,0-5.8,2.6-6.5,6.2c-0.1,0.7-0.2,1.4-0.2,2.2V51h-4.8V32.8z"/><path fill="#FFFFFF" d="M95.4,51l-9.4-36.8h5l4.4,18.6c1.1,4.6,2.1,9.2,2.7,12.7h0.1c0.6-3.7,1.8-8,3-12.8l4.9-18.5h5l4.5,18.7 c1,4.4,2,8.7,2.6,12.6h0.1c0.8-4,1.8-8.1,3-12.7l4.9-18.5h4.9L120.6,51h-5L111,31.9c-1.1-4.7-1.9-8.3-2.4-12h-0.1 c-0.7,3.7-1.5,7.3-2.8,12L100.4,51H95.4z"/><path fill="#FFFFFF" d="M154.9,37.6c0,9.8-6.8,14-13.2,14c-7.2,0-12.7-5.2-12.7-13.6c0-8.8,5.8-14,13.1-14 C149.8,24,154.9,29.5,154.9,37.6z M133.9,37.9c0,5.8,3.3,10.1,8,10.1c4.6,0,8-4.3,8-10.3c0-4.5-2.2-10.1-7.9-10.1 C136.3,27.6,133.9,32.8,133.9,37.9z"/><path fill="#FFFFFF" d="M158.2,32.8c0-3.1-0.1-5.8-0.2-8.2h4.2l0.2,5.2h0.2c1.2-3.5,4.1-5.8,7.3-5.8c0.5,0,0.9,0.1,1.4,0.2v4.5 c-0.5-0.1-1-0.2-1.6-0.2c-3.4,0-5.8,2.6-6.5,6.2c-0.1,0.7-0.2,1.4-0.2,2.2V51h-4.8V32.8z"/><path fill="#FFFFFF" d="M173.5,12.3h4.8V51h-4.8V12.3z"/><path fill="#FFFFFF" d="M206.5,12.3v31.9c0,2.3,0.1,5,0.2,6.8h-4.3l-0.2-4.6H202c-1.5,2.9-4.7,5.2-9,5.2 c-6.4,0-11.3-5.4-11.3-13.4c-0.1-8.8,5.4-14.2,11.9-14.2c4,0,6.8,1.9,8,4h0.1V12.3H206.5z M201.7,35.4c0-0.6-0.1-1.4-0.2-2 c-0.7-3.1-3.3-5.6-6.9-5.6c-5,0-7.9,4.4-7.9,10.2c0,5.3,2.6,9.8,7.8,9.8c3.2,0,6.2-2.1,7.1-5.7c0.2-0.7,0.2-1.3,0.2-2.1V35.4z"/><path fill="#FFFFFF" d="M42.8,64c0.1,1.6-1.1,2.9-3.1,2.9c-1.7,0-2.9-1.3-2.9-2.9c0-1.7,1.3-3,3-3C41.7,61,42.8,62.3,42.8,64z M37.4,97.8V71.4h4.8v26.4H37.4z"/><path fill="#FFFFFF" d="M47.5,78.6c0-2.7-0.1-5-0.2-7.1h4.3l0.3,4.4h0.1c1.3-2.5,4.4-5,8.8-5c3.7,0,9.4,2.2,9.4,11.2v15.8h-4.8 V82.6c0-4.3-1.6-7.8-6.1-7.8c-3.2,0-5.6,2.2-6.5,4.9c-0.2,0.6-0.3,1.4-0.3,2.2v15.9h-4.8V78.6z"/><path fill="#FFFFFF" d="M84,61.6c2.9-0.4,6.3-0.8,10.1-0.8c6.8,0,11.7,1.6,14.9,4.6c3.3,3,5.2,7.3,5.2,13.2c0,6-1.9,10.9-5.3,14.3 c-3.4,3.4-9.1,5.3-16.3,5.3c-3.4,0-6.2-0.2-8.6-0.4V61.6z M88.8,94.1c1.2,0.2,3,0.3,4.8,0.3c10.2,0,15.7-5.7,15.7-15.6 c0.1-8.7-4.9-14.2-14.9-14.2c-2.5,0-4.3,0.2-5.6,0.5V94.1z"/><path fill="#FFFFFF" d="M132.1,97.8l-0.4-3.3h-0.2c-1.5,2.1-4.3,3.9-8.1,3.9c-5.4,0-8.1-3.8-8.1-7.6c0-6.4,5.7-9.9,15.9-9.8v-0.5 c0-2.2-0.6-6.1-6-6.1c-2.5,0-5,0.8-6.9,2l-1.1-3.2c2.2-1.4,5.4-2.3,8.7-2.3c8.1,0,10.1,5.5,10.1,10.8v9.9c0,2.3,0.1,4.5,0.4,6.3 H132.1z M131.4,84.4c-5.3-0.1-11.2,0.8-11.2,5.9c0,3.1,2.1,4.6,4.5,4.6c3.4,0,5.6-2.2,6.4-4.4c0.2-0.5,0.3-1,0.3-1.5V84.4z"/><path fill="#FFFFFF" d="M146.6,63.9v7.6h6.9v3.7h-6.9v14.2c0,3.3,0.9,5.1,3.6,5.1c1.3,0,2.2-0.2,2.8-0.3l0.2,3.6 c-0.9,0.4-2.4,0.7-4.3,0.7c-2.2,0-4-0.7-5.2-2c-1.4-1.4-1.9-3.8-1.9-6.9V75.1h-4.1v-3.7h4.1v-6.3L146.6,63.9z"/><path fill="#FFFFFF" d="M171.4,97.8l-0.4-3.3h-0.2c-1.5,2.1-4.3,3.9-8.1,3.9c-5.4,0-8.1-3.8-8.1-7.6c0-6.4,5.7-9.9,15.9-9.8v-0.5 c0-2.2-0.6-6.1-6-6.1c-2.5,0-5,0.8-6.9,2l-1.1-3.2c2.2-1.4,5.4-2.3,8.7-2.3c8.1,0,10.1,5.5,10.1,10.8v9.9c0,2.3,0.1,4.5,0.4,6.3 H171.4z M170.7,84.4c-5.3-0.1-11.2,0.8-11.2,5.9c0,3.1,2.1,4.6,4.5,4.6c3.4,0,5.6-2.2,6.4-4.4c0.2-0.5,0.3-1,0.3-1.5V84.4z"/></g></g></a></g><a href="https://ourworldindata.org/grapher/number-with-adhd" target="_blank"><text font-size="21.60" x="15.0" y="32.3" fill="#555"><tspan x="15" y="32.279999999999994">Number of people with attention deficit/hyperactivity disorder (ADHD), World</tspan></text></a><text font-size="14.40" x="15.0" y="50.1" fill="#666"><tspan x="15" y="50.11999999999999">Number of people with attention deficit/hyperactivity disorder (ADHD), differentiated by sex.</tspan></text></g><g class="StackedArea"><defs><clipPath id="boundsClip-5"><rect x="88.526" y="0" width="820" height="967"></rect></clipPath></defs><g class="AxisBoxView"><g class="HorizontalAxis"><text x="88.5" y="556.5" fill="#666" text-anchor="middle" font-size="16.2">1990</text><text x="219" y="556.5" fill="#666" text-anchor="middle" font-size="16.2">1995</text><text x="349.4" y="556.5" fill="#666" text-anchor="middle" font-size="16.2">2000</text><text x="479.9" y="556.5" fill="#666" text-anchor="middle" font-size="16.2">2005</text><text x="610.4" y="556.5" fill="#666" text-anchor="middle" font-size="16.2">2010</text><text x="766.9" y="556.5" fill="#666" text-anchor="middle" font-size="16.2">2016</text></g><g class="VerticalAxis"><text x="83.53" y="535.3" fill="#666" dominant-baseline="middle" text-anchor="end" font-size="16.2">0</text><text x="83.53" y="461.5" fill="#666" dominant-baseline="middle" text-anchor="end" font-size="16.2">10 million</text><text x="83.53" y="387.7" fill="#666" dominant-baseline="middle" text-anchor="end" font-size="16.2">20 million</text><text x="83.53" y="313.8" fill="#666" dominant-baseline="middle" text-anchor="end" font-size="16.2">30 million</text><text x="83.53" y="240" fill="#666" dominant-baseline="middle" text-anchor="end" font-size="16.2">40 million</text><text x="83.53" y="166.2" fill="#666" dominant-baseline="middle" text-anchor="end" font-size="16.2">50 million</text><text x="83.53" y="92.4" fill="#666" dominant-baseline="middle" text-anchor="end" font-size="16.2">60 million</text></g><g class="AxisGridLines"><line x1="88.53" y1="535.3" x2="766.90" y2="535.3" stroke="#ccc"></line><line x1="88.53" y1="461.5" x2="766.90" y2="461.5" stroke="#ddd" stroke-dasharray="3,2"></line><line x1="88.53" y1="387.7" x2="766.90" y2="387.7" stroke="#ddd" stroke-dasharray="3,2"></line><line x1="88.53" y1="313.8" x2="766.90" y2="313.8" stroke="#ddd" stroke-dasharray="3,2"></line><line x1="88.53" y1="240" x2="766.90" y2="240" stroke="#ddd" stroke-dasharray="3,2"></line><line x1="88.53" y1="166.2" x2="766.90" y2="166.2" stroke="#ddd" stroke-dasharray="3,2"></line><line x1="88.53" y1="92.4" x2="766.90" y2="92.4" stroke="#ddd" stroke-dasharray="3,2"></line></g><g class="AxisGridLines"><line x1="88.5" y1="535.30" x2="88.5" y2="73.00" stroke="#ddd" stroke-dasharray="3,2"></line><line x1="219" y1="535.30" x2="219" y2="73.00" stroke="#ddd" stroke-dasharray="3,2"></line><line x1="349.4" y1="535.30" x2="349.4" y2="73.00" stroke="#ddd" stroke-dasharray="3,2"></line><line x1="479.9" y1="535.30" x2="479.9" y2="73.00" stroke="#ddd" stroke-dasharray="3,2"></line><line x1="610.4" y1="535.30" x2="610.4" y2="73.00" stroke="#ddd" stroke-dasharray="3,2"></line><line x1="740.8" y1="535.30" x2="740.8" y2="73.00" stroke="#ddd" stroke-dasharray="3,2"></line></g></g><g clip-path="url(#boundsClip-5)"><g class="HeightedLegend clickable"><g class="legendMark"><rect x="771.904" y="134.9" width="63.096000000000004" height="14.4" fill="#fff" opacity="0"></rect><rect x="771.904" y="140.85" width="10" height="2.5" fill="#ed6c2d"></rect><text font-size="14.40" x="786.9" y="146.4" fill="#333"><tspan x="786.904" y="146.42000000000002">Female</tspan></text></g><g class="legendMark"><rect x="771.904" y="366" width="46.248000000000005" height="14.4" fill="#fff" opacity="0"></rect><rect x="771.904" y="371.95" width="10" height="2.5" fill="#3360a9"></rect><text font-size="14.40" x="786.9" y="377.5" fill="#333"><tspan x="786.904" y="377.52">Male</tspan></text></g></g><g class="Areas"><rect x="88.526" y="73" width="678.378" height="462.29999999999995" opacity="0" fill="rgba(255,255,255,0)"></rect><path stroke-linecap="round" d="M88.5 277.4L114.6 275.1L140.7 272.2L166.8 268.9L192.9 265.4L219 262.1L245.1 257L271.2 252.4L297.3 248.2L323.3 244.3L349.4 240.5L375.5 238.3L401.6 236.2L427.7 234.3L453.8 232.5L479.9 230.9L506 229.5L532.1 228.1L558.2 226.4L584.3 224.8L610.4 223.1L636.4 221.3L662.5 219.4L688.6 217.5L714.7 215.5L740.8 213.3L766.9 211.2L766.904 535.3L88.526 535.3" fill="#3360a9" fill-opacity="0.7" class="World_1-area"></path><path stroke-linecap="round" d="M88.5 168.3L114.6 164.2L140.7 159L166.8 153.5L192.9 147.6L219 142L245.1 135.7L271.2 130L297.3 124.9L323.3 120.2L349.4 115.7L375.5 112.4L401.6 109.5L427.7 106.6L453.8 104.1L479.9 101.7L506 99.7L532.1 97.6L558.2 95.2L584.3 92.7L610.4 90.3L636.4 87.7L662.5 85L688.6 82.2L714.7 79.3L740.8 76.2L766.9 73L766.9 211.2L740.8 213.3L714.7 215.5L688.6 217.5L662.5 219.4L636.4 221.3L610.4 223.1L584.3 224.8L558.2 226.4L532.1 228.1L506 229.5L479.9 230.9L453.8 232.5L427.7 234.3L401.6 236.2L375.5 238.3L349.4 240.5L323.3 244.3L297.3 248.2L271.2 252.4L245.1 257L219 262.1L192.9 265.4L166.8 268.9L140.7 272.2L114.6 275.1L88.5 277.4" fill="#ed6c2d" fill-opacity="0.7" class="World_0-area"></path><path stroke-linecap="round" d="M88.5 277.4L114.6 275.1L140.7 272.2L166.8 268.9L192.9 265.4L219 262.1L245.1 257L271.2 252.4L297.3 248.2L323.3 244.3L349.4 240.5L375.5 238.3L401.6 236.2L427.7 234.3L453.8 232.5L479.9 230.9L506 229.5L532.1 228.1L558.2 226.4L584.3 224.8L610.4 223.1L636.4 221.3L662.5 219.4L688.6 217.5L714.7 215.5L740.8 213.3L766.9 211.2" stroke="rgb(43, 80, 141)" stroke-opacity="0.7" stroke-width="0.5" fill="none" class="World_1-border"></path><path stroke-linecap="round" d="M88.5 168.3L114.6 164.2L140.7 159L166.8 153.5L192.9 147.6L219 142L245.1 135.7L271.2 130L297.3 124.9L323.3 120.2L349.4 115.7L375.5 112.4L401.6 109.5L427.7 106.6L453.8 104.1L479.9 101.7L506 99.7L532.1 97.6L558.2 95.2L584.3 92.7L610.4 90.3L636.4 87.7L662.5 85L688.6 82.2L714.7 79.3L740.8 76.2L766.9 73" stroke="rgb(198, 90, 38)" stroke-opacity="0.7" stroke-width="0.5" fill="none" class="World_0-border"></path></g></g></g><g style="fill: #777;" class="SourcesFooter"><g style="fill: #777;" class="clickable"><text font-size="12.60" x="15.0" y="581.6"><tspan x="15" y="581.58">Source: IHME, Global Burden of Disease</tspan></text></g><text font-size="12.60" x="649.0" y="581.6"><tspan x="649.024" y="581.58"><a target='_blank' style='fill: #777;' href='https://ourworldindata.org'>OurWorldInData.org</a> • <a style="fill: #777;" href="http://creativecommons.org/licenses/by-sa/4.0/deed.en_US" target="_blank">CC BY-SA</a></tspan></text></g></g></svg>
